X:46
T:Come Lasses and Lads
R:jig 20
M:6/8
L:1/8
R:Jig
K:G
GAB g2g | agf e2g | ded d2B | (d3 d2) B | B2e e^de | B2e e2f | gfe f2^d | (e3e2)
d | ded g2f | (e3e2)e | efe a2g | (f3 f)ga | b2g a2f | gfe d2B | cde dgf | (g3g2)|
a| b2g a2f | gfe d2B | cde dgf | (g3g2)
w:the song is a 20 bar tune

